src/includes/Icons/plus-home.svg

<?xml version="1.0" encoding="UTF-8" standalone="no"?>
<svg
   xmlns:dc="http://purl.org/dc/elements/1.1/"
   xmlns:cc="http://creativecommons.org/ns#"
   xmlns:rdf="http://www.w3.org/1999/02/22-rdf-syntax-ns#"
   xmlns:svg="http://www.w3.org/2000/svg"
   xmlns="http://www.w3.org/2000/svg"
   xmlns:sodipodi="http://sodipodi.sourceforge.net/DTD/sodipodi-0.dtd"
   xmlns:inkscape="http://www.inkscape.org/namespaces/inkscape"
   width="72pt"
   height="72pt"
   viewBox="0 0 25.400001 25.400001"
   version="1.1"
   id="svg8"
   inkscape:version="0.91+devel r14842"
   sodipodi:docname="plus-home.svg">
  <sodipodi:namedview
     pagecolor="#ffffff"
     bordercolor="#666666"
     borderopacity="1"
     objecttolerance="10"
     gridtolerance="10"
     guidetolerance="10"
     inkscape:pageopacity="0"
     inkscape:pageshadow="2"
     inkscape:window-width="851"
     inkscape:window-height="713"
     id="namedview10"
     showgrid="false"
     inkscape:zoom="2.4583333"
     inkscape:cx="-39.613337"
     inkscape:cy="76.15333"
     inkscape:window-x="0"
     inkscape:window-y="0"
     inkscape:window-maximized="0"
     inkscape:current-layer="svg8" />
  <defs
     id="defs2">
    <font-face
       id="font-face4315"
       font-weight="500"
       descent="-211.91406"
       ascent="905.27344"
       cap-height="716.3086"
       x-height="518.5547"
       slope="0"
       underline-thickness="73.242188"
       underline-position="-105.95703"
       units-per-em="1000"
       panose-1="2 11 6 4 2 2 2 2 2 4"
       font-size="52"
       font-family="Arial"
       stemv="0"
       stemh="0"
       accent-height="0"
       ideographic="0"
       alphabetic="0"
       mathematical="0"
       hanging="0"
       v-ideographic="0"
       v-alphabetic="0"
       v-mathematical="0"
       v-hanging="0"
       strikethrough-position="0"
       strikethrough-thickness="0"
       overline-position="0"
       overline-thickness="0">
      <font-face-src>
        <font-face-name
           name="ArialMT" />
      </font-face-src>
    </font-face>
  </defs>
  <metadata
     id="metadata5">
    <rdf:RDF>
      <cc:Work
         rdf:about="">
        <dc:format>image/svg+xml</dc:format>
        <dc:type
           rdf:resource="http://purl.org/dc/dcmitype/StillImage" />
        <dc:title />
      </cc:Work>
    </rdf:RDF>
  </metadata>
  <g
     aria-label="HOME"
     style="font-style:normal;font-variant:normal;font-weight:bold;font-stretch:condensed;font-size:11.24873543px;line-height:2500%;font-family:'Helvetica Neue';-inkscape-font-specification:'Helvetica Neue, Bold Condensed';font-variant-ligatures:normal;font-variant-caps:normal;font-variant-numeric:normal;font-feature-settings:normal;text-align:start;letter-spacing:0px;word-spacing:0px;writing-mode:lr-tb;text-anchor:start;fill:#ececec;fill-opacity:1;stroke:none;stroke-width:0.28121838px;stroke-linecap:butt;stroke-linejoin:miter;stroke-opacity:1"
     id="text829">
    <path
       d="M -0.03620456,8.7010746 V 16.732672 H 1.5836133 v -3.565849 h 1.8897876 v 3.565849 H 5.0932188 V 8.7010746 H 3.4734009 V 11.771979 H 1.5836133 V 8.7010746 Z"
       style="font-style:normal;font-variant:normal;font-weight:bold;font-stretch:condensed;font-size:11.24873543px;line-height:2500%;font-family:'Helvetica Neue';-inkscape-font-specification:'Helvetica Neue, Bold Condensed';font-variant-ligatures:normal;font-variant-caps:normal;font-variant-numeric:normal;font-feature-settings:normal;text-align:start;writing-mode:lr-tb;text-anchor:start;fill:#ececec;fill-opacity:1;stroke-width:0.28121838px"
       id="path831"
       inkscape:connector-curvature="0" />
    <path
       d="m 7.6983558,12.716873 q 0,-0.809909 0.033746,-1.372346 0.044995,-0.562436 0.1574823,-0.922396 0.1237361,-0.359959 0.3374621,-0.5174417 0.2249747,-0.168731 0.5849342,-0.168731 0.3599595,0 0.5736855,0.168731 0.2249747,0.1574827 0.3374621,0.5174417 0.1237361,0.35996 0.1574823,0.922396 0.044995,0.562437 0.044995,1.372346 0,0.809909 -0.044995,1.383595 -0.033746,0.562436 -0.1574823,0.922396 -0.1124874,0.348711 -0.3374621,0.517442 -0.213726,0.157482 -0.5736855,0.157482 -0.3599595,0 -0.5849342,-0.157482 Q 8.0133204,15.371575 7.8895843,15.022864 7.7770969,14.662904 7.732102,14.100468 7.6983558,13.526782 7.6983558,12.716873 Z m -1.6198179,0 q 0,0.922396 0.078741,1.687311 0.08999,0.764914 0.3712083,1.316102 0.2924671,0.551188 0.8324064,0.843655 0.5399393,0.292467 1.4510869,0.292467 0.9111476,0 1.4510865,-0.292467 0.53994,-0.292467 0.821158,-0.843655 0.292467,-0.551188 0.371208,-1.316102 0.08999,-0.764915 0.08999,-1.687311 0,-0.911147 -0.08999,-1.676061 Q 11.376692,10.264649 11.084225,9.7134608 10.803007,9.1622728 10.263067,8.8585569 9.7231282,8.5435923 8.8119806,8.5435923 q -0.9111476,0 -1.4510869,0.3149646 Q 6.8209544,9.1622728 6.5284873,9.7134608 6.2472689,10.264649 6.157279,11.040812 6.078538,11.805726 6.0785379,12.716873 Z"
       style="font-style:normal;font-variant:normal;font-weight:bold;font-stretch:condensed;font-size:11.24873543px;line-height:2500%;font-family:'Helvetica Neue';-inkscape-font-specification:'Helvetica Neue, Bold Condensed';font-variant-ligatures:normal;font-variant-caps:normal;font-variant-numeric:normal;font-feature-settings:normal;text-align:start;writing-mode:lr-tb;text-anchor:start;fill:#ececec;fill-opacity:1;stroke-width:0.28121838px"
       id="path833"
       inkscape:connector-curvature="0" />
    <path
       d="m 12.542519,8.7010746 v 8.0315974 h 1.484833 v -6.411779 h 0.0225 l 1.42859,6.411779 H 16.7383 l 1.42859,-6.411779 h 0.0225 v 6.411779 h 1.484833 V 8.7010746 h -2.395981 l -1.158619,5.6693624 h -0.0225 L 14.949748,8.7010746 Z"
       style="font-style:normal;font-variant:normal;font-weight:bold;font-stretch:condensed;font-size:11.24873543px;line-height:2500%;font-family:'Helvetica Neue';-inkscape-font-specification:'Helvetica Neue, Bold Condensed';font-variant-ligatures:normal;font-variant-caps:normal;font-variant-numeric:normal;font-feature-settings:normal;text-align:start;writing-mode:lr-tb;text-anchor:start;fill:#ececec;fill-opacity:1;stroke-width:0.28121838px"
       id="path835"
       inkscape:connector-curvature="0" />
    <path
       d="m 25.323718,8.7010746 h -4.488245 v 8.0315974 h 4.600733 v -1.327351 h -2.980915 v -2.159757 h 2.699696 v -1.327351 h -2.699696 v -1.889788 h 2.868427 z"
       style="font-style:normal;font-variant:normal;font-weight:bold;font-stretch:condensed;font-size:11.24873543px;line-height:2500%;font-family:'Helvetica Neue';-inkscape-font-specification:'Helvetica Neue, Bold Condensed';font-variant-ligatures:normal;font-variant-caps:normal;font-variant-numeric:normal;font-feature-settings:normal;text-align:start;writing-mode:lr-tb;text-anchor:start;fill:#ececec;fill-opacity:1;stroke-width:0.28121838px"
       id="path837"
       inkscape:connector-curvature="0" />
  </g>
</svg>

<svg xmlns="http://www.w3.org/2000/svg" width="96" height="96" viewBox="0 0 25.4 25.4"><g aria-label="HOME" style="font-style:normal;font-variant:normal;font-weight:700;font-stretch:condensed;font-size:11.24873543px;line-height:2500%;font-family:&quot;Helvetica Neue&quot;;-inkscape-font-specification:&quot;Helvetica Neue, Bold Condensed&quot;;font-variant-ligatures:normal;font-variant-caps:normal;font-variant-numeric:normal;font-feature-settings:normal;text-align:start;letter-spacing:0;word-spacing:0;writing-mode:lr-tb;text-anchor:start;fill:#ececec;fill-opacity:1;stroke:none;stroke-width:.28121838px;stroke-linecap:butt;stroke-linejoin:miter;stroke-opacity:1"><path d="M-.036 8.701v8.032h1.62v-3.566h1.89v3.566h1.62V8.7h-1.62v3.071h-1.89v-3.07ZM7.698 12.717q0-.81.034-1.372.045-.563.158-.923.123-.36.337-.517.225-.169.585-.169t.574.169q.225.157.337.517.124.36.158.923.045.562.045 1.372T9.88 14.1q-.034.563-.158.923-.112.349-.337.517-.214.158-.574.158t-.585-.158q-.214-.168-.337-.517-.113-.36-.158-.923-.034-.573-.034-1.383m-1.62 0q0 .922.08 1.687.09.765.37 1.316.293.551.833.844t1.451.292 1.451-.292.821-.844q.293-.55.371-1.316.09-.765.09-1.687 0-.911-.09-1.676-.078-.776-.37-1.328-.282-.55-.822-.854-.54-.315-1.451-.315t-1.451.315q-.54.303-.833.854-.28.552-.37 1.328-.08.765-.08 1.676M12.543 8.701v8.032h1.484V10.32h.023l1.428 6.412h1.26l1.429-6.412h.022v6.412h1.485V8.7h-2.396l-1.158 5.67h-.023L14.95 8.7ZM25.324 8.701h-4.489v8.032h4.601v-1.328h-2.98v-2.16h2.699v-1.327h-2.7v-1.89h2.869z" style="font-style:normal;font-variant:normal;font-weight:700;font-stretch:condensed;font-size:11.24873543px;line-height:2500%;font-family:&quot;Helvetica Neue&quot;;-inkscape-font-specification:&quot;Helvetica Neue, Bold Condensed&quot;;font-variant-ligatures:normal;font-variant-caps:normal;font-variant-numeric:normal;font-feature-settings:normal;text-align:start;writing-mode:lr-tb;text-anchor:start;fill:#ececec;fill-opacity:1;stroke-width:.28121838px"/></g></svg>
